X: 80
T: No_173_Why_I.krn
%%abc-version 2.0
%%abcx-abcm2ps-target-version 5.9.1 (29 Sep 2008)
%%abc-creator hum2abc beta
%%abcx-conversion-date 2020/08/10 18:54:56
%%gracespace 0 6 6
%%humdrum-veritas 860490405
%%humdrum-veritas-data 387685395
%%linebreak <none>
%%barnumbers 0
L: 1/4
M: 2/4
%%staves {1 2}
V: 1 clef=bass
V: 2 clef=bass
K: Db
[V:1] [K:clef=bass][M:2/4]FF ||  
[V:2] [K:clef=bass][M:2/4](3!accent!G,,/ z/ G,,/ (3!accent!G,,/ z/ G,,/ ||  
[V:1] [M:3/4]FDF | 
[V:2] [M:3/4]z3 | 
[V:1] D3- | 
[V:2] z3 | 
[V:1] D3 ||  
[V:2] z3 ||  
[V:1] [M:2/4]C3/D/ | 
[V:2] [M:2/4]z2 | 
[V:1] DD | 
[V:2] z2 | 
[V:1] D2 | 
[V:2] z2 | 
[V:1] A,2- | 
[V:2] z2 | 
[V:1] A,2 | 
[V:2] z2 | 
[V:1] D3/D/ | 
[V:2] z2 | 
[V:1] DC | 
[V:2] z2 | 
[V:1] D2 | 
[V:2] z2 | 
[V:1] F,2- | 
[V:2] z2 | 
[V:1] F,2 | 
[V:2] z2 | 
[V:1] D3/D/ | 
[V:2] z2 | 
[V:1] DC | 
[V:2] z2 | 
[V:1] D2 |]  
[V:2] z2 |]  


